www/assets/icons/view_agenda.svg

<svg xmlns="http://www.w3.org/2000/svg" width="24" height="24" viewBox="0 0 24 24" fill='currentColor'><path d="M19 13H5c-1.1 0-2 .9-2 2v4c0 1.1.9 2 2 2h14c1.1 0 2-.9 2-2v-4c0-1.1-.9-2-2-2m0-10H5c-1.1 0-2 .9-2 2v4c0 1.1.9 2 2 2h14c1.1 0 2-.9 2-2V5c0-1.1-.9-2-2-2"/></svg>

<svg width="24" height="24" viewBox="0 0 24 24" xmlns="http://www.w3.org/2000/svg" fill='currentColor'><path d="M19 13H5C3.9 13 3 13.9 3 15V19C3 20.1 3.9 21 5 21H19C20.1 21 21 20.1 21 19V15C21 13.9 20.1 13 19 13Z"/><path d="M19 3H5C3.9 3 3 3.9 3 5V9C3 10.1 3.9 11 5 11H19C20.1 11 21 10.1 21 9V5C21 3.9 20.1 3 19 3Z"/></svg>
